resources/svg/major-fulfillment-on-hold.svg

<svg xmlns="http://www.w3.org/2000/svg" viewBox="0 0 20 20" fill="currentColor"><path fill-rule="evenodd" d="M19 4H11V1.00001H16.2267C16.6093 0.998786 16.9634 1.16232 17.1547 1.42858L19 4ZM3.77333 1.00001H9V4H1L2.84533 1.42858C3.03663 1.16232 3.39074 0.998786 3.77333 1.00001ZM1 16.5V6H19V8C19 9 18 9 18 9H16.5048C12.9234 9 10.0097 11.9159 10.0097 15.5C10.0032 15.9327 10.0005 16.4658 10 17C10 17 9.5 18 8.5 18L2.49997 18C1.67156 18 1 17.3284 1 16.5ZM14.8333 12C14.3731 12 14 12.3731 14 12.8333V17.8333C14 18.2936 14.3731 18.6667 14.8333 18.6667C15.2936 18.6667 15.6667 18.2936 15.6667 17.8333V12.8333C15.6667 12.3731 15.2936 12 14.8333 12ZM17.3333 12.8333C17.3333 12.3731 17.7064 12 18.1667 12C18.6269 12 19 12.3731 19 12.8333V17.8333C19 18.2936 18.6269 18.6667 18.1667 18.6667C17.7064 18.6667 17.3333 18.2936 17.3333 17.8333V12.8333Z" fill="#5C5F62"/></svg>

<svg xmlns="http://www.w3.org/2000/svg" viewBox="0 0 20 20" fill="currentColor"><path fill-rule="evenodd" d="M19 4h-8v-3h5.227c.382-.001.736.162.928.429l1.845 2.571Zm-15.227-3h5.227v3h-8l1.845-2.571c.192-.267.546-.43.928-.429Zm-2.773 15.5v-10.5h18v2c0 1-1 1-1 1h-1.495c-3.582 0-6.495 2.916-6.495 6.5-.007.433-.01.966-.01 1.5 0 0-.5 1-1.5 1h-6a1.5 1.5 0 0 1-1.5-1.5Zm13.833-4.5a.833.833 0 0 0-.833.833v5a.833.833 0 1 0 1.667 0v-5a.833.833 0 0 0-.834-.833Zm2.5.833a.833.833 0 0 1 1.667 0v5a.833.833 0 1 1-1.667 0v-5Z"/></svg>
